X: 25434
T: Marcha De L'Anton El Nenu
R: reel
M: 4/4
K: Dmajor
|:F3D A2 (3GAG|F4- F2F2|G3G F2G2|E4- E2E2|
F3D A2 (3GAG|F3F/G/ F2D/E/F/G/|F3D/F/ E3-E/E/|1 D4- D2E2:|2 D4- D2F2||
|:G3G F2G2|E3E F2G2|A3A B2G2|[M:2/4] A2- A//B//A/G|[M:4/4] F4- F2F2|
B3B G2B2|A3A dcdc|A3A G3G|[M:2/4] A2- A//B//A/G|[M:4/4] F4- F2F2|
G3G F2G2|E3E FDGD|A3D B2d2|[M:2/4] A2- A//B//A/G|[M:4/4] F4- F2F2|
B3B G2B2|A3A dcdc|A3A G3G|[M:2/4] A2- A//B//A/G|[M:4/4] F4- F2E2||

